target-variant.svg

<svg fill="currentColor" viewBox="0 0 24 24"><path d="M22.08 11.04h-2V4h-7.03V2h-2.01v2H4v7.04H2v2.01h2v7.03h7.04v2h2.01v-2h7.03v-7.03h2zm-4.01 7.03h-5.02v-2.01h-2.01v2.01H6v-5.02h2.03v-2.01H6V6h5.04v2.03h2.01V6h5.02v5.04h-2.01v2.01h2.01zm-5.02-6.02a1 1 0 0 1-1 1c-.55 0-1.01-.45-1.01-1s.46-1.01 1.01-1.01 1 .46 1 1.01"/></svg>

<svg  viewBox="0 0 24 24" fill="currentColor"><path  d="M22.08,11.04H20.08V4H13.05V2H11.04V4H4V11.04H2V13.05H4V20.08H11.04V22.08H13.05V20.08H20.08V13.05H22.08V11.04M18.07,18.07H13.05V16.06H11.04V18.07H6V13.05H8.03V11.04H6V6H11.04V8.03H13.05V6H18.07V11.04H16.06V13.05H18.07V18.07M13.05,12.05A1,1 0 0,1 12.05,13.05C11.5,13.05 11.04,12.6 11.04,12.05C11.04,11.5 11.5,11.04 12.05,11.04C12.6,11.04 13.05,11.5 13.05,12.05Z"/></svg>
